src/img/icons/calendar.svg

<svg width="32" height="32" viewBox="0 0 32 32" fill="none" xmlns="http://www.w3.org/2000/svg">
<path d="M5.8 30.0007C5.16814 30.0007 4.62684 29.7753 4.1761 29.3246C3.72537 28.8738 3.5 28.3325 3.5 27.7007V6.94257C3.5 6.31046 3.72537 5.76917 4.1761 5.31868C4.62684 4.86794 5.16814 4.64257 5.8 4.64257H8.28897V2.88154C8.28897 2.60213 8.38248 2.36696 8.56949 2.17603C8.75674 1.98534 8.99032 1.89 9.27022 1.89C9.55723 1.89 9.79694 1.98534 9.98934 2.17603C10.1817 2.36696 10.2779 2.60213 10.2779 2.88154V4.64257H21.7787V2.85581C21.7787 2.57787 21.8705 2.34735 22.054 2.16426C22.2379 1.98142 22.4659 1.89 22.7382 1.89C23.0176 1.89 23.2512 1.98215 23.439 2.16647C23.6267 2.35078 23.7206 2.57971 23.7206 2.85324V4.64257H26.2C26.8319 4.64257 27.3732 4.86794 27.8239 5.31868C28.2746 5.76917 28.5 6.31046 28.5 6.94257V27.7007C28.5 28.3325 28.2746 28.8738 27.8239 29.3246C27.3732 29.7753 26.8319 30.0007 26.2 30.0007H5.8ZM5.8 28.1529H26.2C26.313 28.1529 26.4167 28.1058 26.511 28.0117C26.6051 27.9173 26.6522 27.8137 26.6522 27.7007V13.3624H5.34779V27.7007C5.34779 27.8137 5.39485 27.9173 5.48897 28.0117C5.58333 28.1058 5.68701 28.1529 5.8 28.1529ZM5.34779 11.5146H26.6522V6.94257C26.6522 6.82958 26.6051 6.72591 26.511 6.63154C26.4167 6.53718 26.313 6.49 26.2 6.49H5.8C5.68701 6.49 5.58333 6.53718 5.48897 6.63154C5.39485 6.72591 5.34779 6.82958 5.34779 6.94257V11.5146ZM16 19.0845C15.64 19.0845 15.3331 18.9576 15.0794 18.704C14.826 18.4505 14.6993 18.1437 14.6993 17.7834C14.6993 17.4233 14.826 17.1165 15.0794 16.8628C15.3331 16.6094 15.64 16.4826 16 16.4826C16.36 16.4826 16.6669 16.6094 16.9206 16.8628C17.174 17.1165 17.3007 17.4233 17.3007 17.7834C17.3007 18.1437 17.174 18.4505 16.9206 18.704C16.6669 18.9576 16.36 19.0845 16 19.0845ZM10.1176 19.0845C9.7576 19.0845 9.45074 18.9576 9.19706 18.704C8.94363 18.4505 8.81691 18.1437 8.81691 17.7834C8.81691 17.4233 8.94363 17.1165 9.19706 16.8628C9.45074 16.6094 9.7576 16.4826 10.1176 16.4826C10.4777 16.4826 10.7846 16.6094 11.0382 16.8628C11.2917 17.1165 11.4184 17.4233 11.4184 17.7834C11.4184 18.1437 11.2917 18.4505 11.0382 18.704C10.7846 18.9576 10.4777 19.0845 10.1176 19.0845ZM21.8824 19.0845C21.5223 19.0845 21.2154 18.9576 20.9618 18.704C20.7083 18.4505 20.5816 18.1437 20.5816 17.7834C20.5816 17.4233 20.7083 17.1165 20.9618 16.8628C21.2154 16.6094 21.5223 16.4826 21.8824 16.4826C22.2424 16.4826 22.5493 16.6094 22.8029 16.8628C23.0564 17.1165 23.1831 17.4233 23.1831 17.7834C23.1831 18.1437 23.0564 18.4505 22.8029 18.704C22.5493 18.9576 22.2424 19.0845 21.8824 19.0845ZM16 24.8536C15.64 24.8536 15.3331 24.7268 15.0794 24.4731C14.826 24.2197 14.6993 23.9129 14.6993 23.5529C14.6993 23.1926 14.826 22.8857 15.0794 22.6323C15.3331 22.3786 15.64 22.2518 16 22.2518C16.36 22.2518 16.6669 22.3786 16.9206 22.6323C17.174 22.8857 17.3007 23.1926 17.3007 23.5529C17.3007 23.9129 17.174 24.2197 16.9206 24.4731C16.6669 24.7268 16.36 24.8536 16 24.8536ZM10.1176 24.8536C9.7576 24.8536 9.45074 24.7268 9.19706 24.4731C8.94363 24.2197 8.81691 23.9129 8.81691 23.5529C8.81691 23.1926 8.94363 22.8857 9.19706 22.6323C9.45074 22.3786 9.7576 22.2518 10.1176 22.2518C10.4777 22.2518 10.7846 22.3786 11.0382 22.6323C11.2917 22.8857 11.4184 23.1926 11.4184 23.5529C11.4184 23.9129 11.2917 24.2197 11.0382 24.4731C10.7846 24.7268 10.4777 24.8536 10.1176 24.8536ZM21.8824 24.8536C21.5223 24.8536 21.2154 24.7268 20.9618 24.4731C20.7083 24.2197 20.5816 23.9129 20.5816 23.5529C20.5816 23.1926 20.7083 22.8857 20.9618 22.6323C21.2154 22.3786 21.5223 22.2518 21.8824 22.2518C22.2424 22.2518 22.5493 22.3786 22.8029 22.6323C23.0564 22.8857 23.1831 23.1926 23.1831 23.5529C23.1831 23.9129 23.0564 24.2197 22.8029 24.4731C22.5493 24.7268 22.2424 24.8536 21.8824 24.8536Z" fill="#131212"/>
</svg>

<svg xmlns="http://www.w3.org/2000/svg" viewBox="0 0 32 32">
  <path fill="currentColor" d="M5.8 30a2.215 2.215 0 0 1-1.624-.675A2.215 2.215 0 0 1 3.5 27.7V6.943c0-.633.225-1.174.676-1.624.45-.451.992-.676 1.624-.676h2.489V2.882a.97.97 0 0 1 .981-.992.98.98 0 0 1 .72.286.956.956 0 0 1 .288.706v1.76h11.5V2.857a.937.937 0 0 1 .96-.966.96.96 0 0 1 .701.276.924.924 0 0 1 .282.687v1.79H26.2c.632 0 1.173.225 1.624.676.45.45.676.991.676 1.624V27.7c0 .631-.225 1.173-.676 1.624-.45.45-.992.676-1.624.676H5.8Zm0-1.847h20.4a.433.433 0 0 0 .311-.141.433.433 0 0 0 .141-.311V13.362H5.348v14.339a.43.43 0 0 0 .141.31.433.433 0 0 0 .311.142Zm-.452-16.638h21.304V6.943a.433.433 0 0 0-.141-.311.432.432 0 0 0-.311-.142H5.8a.433.433 0 0 0-.311.142.433.433 0 0 0-.141.31v4.573ZM16 19.085a1.25 1.25 0 0 1-.92-.381 1.254 1.254 0 0 1-.38-.92c0-.36.126-.668.38-.921.253-.254.56-.38.92-.38s.667.126.92.38c.254.253.38.56.38.92s-.126.668-.38.921a1.25 1.25 0 0 1-.92.38Zm-5.882 0a1.25 1.25 0 0 1-.92-.381 1.254 1.254 0 0 1-.381-.92c0-.36.127-.668.38-.921.254-.254.56-.38.92-.38s.668.126.921.38c.254.253.38.56.38.92s-.126.668-.38.921a1.25 1.25 0 0 1-.92.38Zm11.764 0a1.25 1.25 0 0 1-.92-.381 1.254 1.254 0 0 1-.38-.92c0-.36.126-.668.38-.921.253-.254.56-.38.92-.38s.667.126.92.38c.254.253.381.56.381.92s-.127.668-.38.921c-.254.254-.56.38-.92.38ZM16 24.853c-.36 0-.667-.127-.92-.38a1.253 1.253 0 0 1-.38-.921c0-.36.126-.667.38-.92.253-.254.56-.381.92-.381s.667.127.92.38c.254.254.38.56.38.92s-.126.668-.38.921a1.25 1.25 0 0 1-.92.38Zm-5.882 0c-.36 0-.667-.127-.92-.38a1.253 1.253 0 0 1-.381-.921c0-.36.127-.667.38-.92.254-.254.56-.381.92-.381s.668.127.921.38c.254.254.38.56.38.92s-.126.668-.38.921a1.25 1.25 0 0 1-.92.38Zm11.764 0c-.36 0-.667-.127-.92-.38a1.253 1.253 0 0 1-.38-.921c0-.36.126-.667.38-.92.253-.254.56-.381.92-.381s.667.127.92.38c.254.254.381.56.381.92s-.127.668-.38.921c-.254.254-.56.38-.92.38Z"/>
</svg>
